**kern
*staff1
*I"Piano
*clefG2
*k[b-]
*F:
*M4/4
4e/
=1 	=1
4cc\
4r
4r
4e/
=2 	=2
4cc\
4r
4r
4e/
=3 	=3
4cc\
4r
4e/
4cc\
=4 	=4
4e/
4r
4e/
4cc\
=5 	=5
4g/
4r
4r
4g/
=6 	=6
4g#/
4f/
4f#/
4e-/
=7 	=7
!!linebreak:original
4e/
4r
2r
=8 	=8
2r
4r
8r
8cc\
=9|| 	=9||
8ff\L
8ff\J
4ee\
8ff\L
8cc\J
8r
8cc\
=10 	=10
4ff\
8ee\L
8ff\J
2r
=11 	=11
4r
4f/
8ff\L
8f\J
4r
=12 	=12
4f/
8ff\L
8f\J
4r
8r
8cc\
=13 	=13
!!linebreak:original
8ff\L
8ff\J
4ee\
8ff\L
8cc\J
8r
8cc\
=14 	=14
4ff\
8ee\L
8ff\J
2r
=15 	=15
4r
4f/
8ff\L
8f\J
4r
=16 	=16
4f/
8ff\L
8f\J
4r
8r
8cc\
=17 	=17
8ff\L
8ff\J
4ee\
8ff\L
8cc\J
8r
8cc\
=18 	=18
!!linebreak:original
4ff\
8ee\L
8ff\J
2r
=19 	=19
4r
4f/
8ff\L
8f\J
4r
=20 	=20
4f/
8ff\L
8f\J
4r
8r
8cc\
=21 	=21
8ff\L
8ff\J
4ee\
8ff\L
8cc\J
8r
8cc\
=22 	=22
4ff\
8ee\L
8ff\J
2r
=23 	=23
4r
4f/
8ff\L
8f\J
4r
=24 	=24
!!linebreak:original
4f/
8ff\L
8f\J
2r
=25 	=25
2r
4r
12A/L
12c#/
12e/J
=26 	=26
4b-\
8a/L
[8e-/J
4e-/]
8c#/L
8d/J
=27 	=27
2r
8r
8c#/L
8d/
8A/J
=28 	=28
8c#/L
8d/J
4r
2r
=29 	=29
!!linebreak:original
2r
4r
12G/L
12Bn/
12d/J
=30 	=30
4a-/
8g/L
[8d-/J
4d-/]
8Bn/L
8c/J
=31 	=31
1r
=32 	=32
2r
4r
8r
8cc\
=33 	=33
8ff\L
8ff\J
4ee\
8ff\L
8cc\J
8r
8cc\
=34 	=34
4ff\
8ee\L
8ff\J
2r
=35 	=35
!!linebreak:original
4r
4f/
8ff\L
8f\J
4r
=36 	=36
4f/
8ff\L
8f\J
4r
8r
8cc\
=37 	=37
8ff\L
8ff\J
4ee\
8ff\L
8cc\J
8r
8cc\
=38 	=38
4ff\
8ee\L
8ff\J
2r
=39 	=39
4r
4f/
8ff\L
8f\J
4r
=40 	=40
!!linebreak:original
4f/
8ff\L
8f\J
4r
8r
8cc\
=41|| 	=41||
8f/L
8g#/
8a/
8cc/J
8ff\L
8ee-\
8dd\
8cc\J
=42 	=42
8b-/L
8g#/
8a/
[8cc/J
8cc\L]
(16dd\L
16cc\JJ)
8b-/L
8g#/J
=43 	=43
4a/
4r
2r
=44 	=44
!!pagebreak:original
4r
8r
[8aa\
8aa\]
4aa\
[8aa\
=45 	=45
4aa\]
8gg\L
8ff\J
8ee-\L
8dd\
8cc\
8a\J
=46 	=46
4b-\
8ee-\L
[8dd-\J
4.dd-\]
[8cc\
=47 	=47
4cc\]
8ff\L
8cc\J
8b-/L
8g#/
8a/
8f/J
=48 	=48
1r
=49|| 	=49||
!!linebreak:original
8cc\L
8ff\
8cc\
8bn\J
4ee\
8b\L
8b-\J
=50 	=50
8ee-\L
8b-\
8a\
8dd\J
8a\L
8a-\
8dd-\
8cc\J
=51 	=51
1r
=52 	=52
1r
=53 	=53
8b-\L
8ee-\
8b-\
8a\J
4dd\
8a/L
8a-/J
=54 	=54
!!linebreak:original
8dd-\L
8a-\
8g\
8cc\J
8g\L
8a-\
8dd-\
8ddn\J
=55 	=55
1r
=56 	=56
1r
=57|| 	=57||
4r
8g#/L
8a/J
8b-/L
8g#/
8a/
8f/J
=58 	=58
4.g#/
[8a/
8a/L]
8f/J
4g#/
=59 	=59
1r
=60 	=60
1r
=61 	=61
!!linebreak:original
1r
=62 	=62
2r
4r
8r
8ff\
=63 	=63
8bb-\L
8aa\
8bb-\
8gg\J
8gg#\L
8aa\
8gg#\
8aa\J
=64 	=64
8bb-\L
8gg#\
8aa\
[8ff\J
4ff\]
8ee\L
8ff\J
=65 	=65
8gg\L
8ff\
8ee\
8dd\J
8cc/L
8b-/
8d/
8f/J
=66 	=66
!!linebreak:original
8a/L
8a-/J
12g/L
12g-/
12f/J
8e/L
8gn/
8b-/
8dd-/J
=67|| 	=67||
8cc/L
8b-/
8g#/
8a/J
8b-/L
8g#/
8a/
[8f/J
=68 	=68
4f/]
8g/L
8e/J
8f/L
8g/
8a/
8b-/J
=69 	=69
!!linebreak:original
12cc\L
12dd\
12cc\J
8b-/L
8g#/J
12a\L
12cc\
12ee\J
8gg\L
8ee\J
=70 	=70
4ff\
8r
[8ccc\
8ccc\]
8r
4r
=71 	=71
1r
=72 	=72
2r
4r
4ccc\
=73 	=73
4fff\
[2.fff\
=74 	=74
1fff]
=75 	=75
4ggg\
4r
2r
=76 	=76
!!linebreak:original
2r
4fff\
8eee-\L
8ddd\J
=77 	=77
8ccc\L
8bb-\
8aa\
8gg\J
8ff\L
8ee\
8gg\
8ff\J
=78 	=78
8ee\L
8dd\
8cc\
8b-\J
8a/L
8g/
8f/
8d/J
=79 	=79
8e-/L
8f/J
12d/L
12e-/
12d/J
8f/L
8d/
8e-/
8f/J
=80 	=80
!!linebreak:original
8g/L
8a/
8b-/
8cc/J
8b-/L
8g#/
8a/
[8f/J
=81 	=81
4f/]
8g/L
8e/J
4f/
4r
=82 	=82
2r
4r
4bbn\
=83 	=83
2.eee\
8r
[8eee-\
=84 	=84
!!pagebreak:original
8eee-\]
4ddd-\
8aa\
8ccc\L
8bbn\
8bb-\
8aa\J
=85 	=85
8gg\L
8ff\
8ee\
8ff\J
8gg\L
8ee\
8ff\
8ddd\J
=86 	=86
2r
4r
4aa\
=87 	=87
4ddd\
8aa\L
8ddd\J
8ccc#\L
8aa\
8ff\J
8r
=88 	=88
!!linebreak:original
4ccc\
8bb-\L
[8bbn\J
4bb\]
4r
=89 	=89
4bb-\
8gg\L
8bb-\J
8aa\L
8aa-\
8gg\
8ff\J
=90 	=90
4ee\
8b-\L
8dd\J
8cc/L
8b-/
8a/
8g/J
=91 	=91
4g/
8f/L
8g/J
8a/L
8b-/J
12cc\L
12dd\
12cc\J
=92 	=92
!!linebreak:original
4b-\
8r
24a\LL
24b-\
[24gg-\JJ
8gg-\]
8r
4r
=93 	=93
2r
8ddd\L
8ddd-\
8ccc\
8bbn\J
=94 	=94
4bb-\
8gg\L
8bb-\J
8aa\L
8aa-\
8gg\
8ff\J
=95 	=95
!!linebreak:original
8ee\L
8ee-\
8dd\
8dd-\J
8cc/L
8bn/
8b-/
8g-/J
=96 	=96
8f/L
8e/
8g/
8e/J
8f/L
8g/
8a/
8b-/J
=97 	=97
12cc\L
12dd\
12cc\J
8b-/L
8g#/J
8a/
4f/
8r
=98 	=98
!!linebreak:original
8g/L
8e/
8f/
[8cc/J
4cc\]
8b-/L
8g#/J
=99 	=99
4a/
4r
2r
=100 	=100
1r
=101 	=101
1r
=102 	=102
1r
== 	==
*-
